X:1
T:Title
%%score { ( 1 3 ) | ( 2 4 ) }
L:1/8
M:4/4
K:F
V:1 treble nm="Grand Piano"
V:3 treble 
V:2 bass 
V:4 bass 
V:1
 z4 z2[Q:1/4=108] F2 | A2 c2 c2 F2 | A2 c2 F2 [CF][DG] | [CA]2 [CFA][DFB] [CFA]2 [B,EG]>[B,EA] | %4
[M:3/4] F4 F2 |[M:1/4] F2 |[M:4/4] A2 c2 c2 F2 | A2 c2 F2 [CF][DG] | %8
 [CA]2 [CFA][DFB] [CFA]2 [B,EG]>[B,EA] |[M:3/4] [A,F]4 [A,F]2 |[M:1/4] [CAc]>[CAc] | %11
[M:4/4] [Ac]3 A [CAc]2 [DFf]>[Fd] |[M:9/8] d3 c [Af]2- [Af][=B,F][B,FG] | %13
[M:4/4] [CFA]2 [CFA][DFA] [CFA]2 [B,EG]>[B,EA] |[M:3/4] [A,F]4 [A,F]2 |] %15
V:2
 z4 z2 [F,A,C]2 | [F,CF]2 [F,A,F]2 [F,A,F]2 [F,A,]2 | [F,CF]2 [F,A,G]2 [F,A,]2 [A,,F,][B,,F,] | %3
 [C,F,]2 C,C, C,2 C,>C, |[M:3/4] [F,A,]4 [F,A,]2 |[M:1/4] [F,A,C]2 | %6
[M:4/4] [F,CF]2 [F,A,F]2 [F,A,F]2 [F,A,]2 | [F,CF]2 [F,A,G]2 [F,A,]2 [A,,F,][B,,F,] | %8
 [C,F,]2 C,C, C,2 C,>C, |[M:3/4] F,4 F,2 |[M:1/4] F,>F, |[M:4/4] z2 z F F,2 B,,>[D,B,] | %12
[M:9/8] [F,A,F]3- [F,A,F] [F,C]2- [F,C]D,D, |[M:4/4] C,2 C,C, C,2 C,>C, |[M:3/4] F,4 F,2 |] %15
V:3
 x8 | x8 | x8 | x8 |[M:3/4] x6 |[M:1/4] x2 |[M:4/4] x8 | x8 | x8 |[M:3/4] x6 |[M:1/4] x2 | %11
[M:4/4] C4 z4 |[M:9/8] x9 |[M:4/4] x8 |[M:3/4] x6 |] %15
V:4
 x8 | x8 | x8 | x8 |[M:3/4] x6 |[M:1/4] x2 |[M:4/4] x8 | x8 | x8 |[M:3/4] x6 |[M:1/4] x2 | %11
[M:4/4] F,4 z4 |[M:9/8] x9 |[M:4/4] x8 |[M:3/4] x6 |] %15

